!!!COM: Giovanni Pietro del Buono
!!!OPR: Canoni, oblighi et Sonate in varie maniere sopra l'Ave Maris Stella
!!!OTL: Alla quinta alta a due pause
!!!PPR: P.Denti
!!!PDT: 1641
!!!PPP: Palermo
!!!YOR: Palermo: P.Denti, 1641 (microfilm)
!!!YOO: Civico Museo Bibliografico Musicale, Bologna.
**kern	**kern	**kern
*CF	*guida	*conseq
*k[]	*k[]	*k[]
*M4/2	*M4/2	*M4/2
=1	=1	=1
0D	2.A	0r
.	4G	.
.	4F	.
.	4D	.
.	[2d	.
=2	=2	=2
(0A	4d]	2.e
.	8c	.
.	8B	.
.	4c	.
.	4d	4d
.	1e	4c
.	.	4A
.	.	[2a
=3	=3	=3
0B)	2r	4a]
.	.	8g
.	.	8f
.	2E	4g
.	.	4a
.	4G	1b
.	4F	.
.	4G	.
.	4A	.
=4	=4	=4
0G	4B	2r
.	4c	.
.	1d	2B
.	.	4d
.	.	4c
.	2B	4d
.	.	4e
=5	=5	=5
(0A	2.c	4f
.	.	4g
.	.	1a
.	4c	.
.	1c	.
.	.	2f
=6	=6	=6
0B	2r	2.g
.	1d	.
.	.	4g
.	.	1g
.	2d	.
=7	=7	=7
0c	2e	2r
.	2.f	1a
.	8e	.
.	8d	.
.	2e	2a
=8	=8	=8
0d)	1f	2b
.	.	2.cc
.	2f	.
.	.	8b
.	.	8a
.	4e	2b
.	4d	.
=9	=9	=9
0c	4e	1cc
.	4c	.
.	4e	.
.	4f	.
.	[1g	2cc
.	.	4b
.	.	4a
=10	=10	=10
0B	2g]	4b
.	.	4g
.	4f	4b
.	4e	4cc
.	4d	[1dd
.	4c	.
.	2d	.
=11	=11	=11
0A	2e	2dd]
.	2.f	4cc
.	.	4b
.	.	4a
.	8e	4g
.	8d	.
.	4e	2a
.	4c	.
=12	=12	=12
0G	4r	2b
.	2d	.
.	.	2.cc
.	4d	.
.	4d	.
.	4c	8b
.	.	8a
.	4d	4b
.	4e	4g
=13	=13	=13
0A	2f	4r
.	.	2a
.	2F	.
.	.	4a
.	2F	4a
.	.	4g
.	[2F	4a
.	.	4b
=14	=14	=14
0A	4F]	2cc
.	4E	.
.	4F	2c
.	4G	.
.	4A	2c
.	4F	.
.	4A	[2c
.	4B	.
=15	=15	=15
0A	1c	4c]
.	.	4B
.	.	4c
.	.	4d
.	2c	4e
.	.	4c
.	2c	4e
.	.	4f
=16	=16	=16
0G	2B	1g
.	4G	.
.	4A	.
.	4B	2g
.	4A	.
.	4G	2g
.	8F	.
.	8E	.
=17	=17	=17
0A	1.D	2f
.	.	4d
.	.	4e
.	.	4f
.	.	4e
.	4D	4d
.	4E	8c
.	.	8B
=18	=18	=18
0D	4F	1.A
.	4A	.
.	4F	.
.	4G	.
.	2A	.
.	2F	4A
.	.	4B
=19	=19	=19
0E	1G	4c
.	.	4e
.	.	4c
.	.	4d
.	2G	2e
.	2A	2c
=20	=20	=20
0G	2.B	1d
.	4B	.
.	2B	2d
.	2G	2e
=21	=21	=21
0F	2A	2.f
.	4c	.
.	4B	4f
.	4A	2f
.	4G	.
.	4F	2d
.	8E	.
.	8F	.
=22	=22	=22
0E	1G	2e
.	.	4g
.	.	4f
.	2r	4e
.	.	4d
.	[2G	4c#
.	.	8B
.	.	8c#
=23	=23	=23
0D	2G]	1d
.	4F#	.
.	4E	.
.	4F#	2r
.	2G	.
.	.	[2d
.	4F#	.
=24	=24	=24
0E	1G	2d]
.	.	4c
.	.	4B
.	2G	4c
.	.	2d
.	2G	.
.	.	4c
=25	=25	=25
0D	2F	1d
.	2D	.
.	2.F	2d
.	.	2d
.	4G	.
=26	=26	=26
0F	4A	2c
.	4B	.
.	4c	2A
.	4B	.
.	2A	2.c
.	4G	.
.	4F	4d
=27	=27	=27
0E	2G	4e
.	.	4f
.	2C	4g
.	.	4f
.	4G	2e
.	8A	.
.	8B	.
.	[2c	4d
.	.	4c
=28	=28	=28
0G	2c]	2d
.	4B	2G
.	4A	.
.	1B	4d
.	.	8e
.	.	8f
.	.	[2g
=29	=29	=29
0A	2r	2g]
.	2.D	4f
.	.	4e
.	.	1f
.	4E	.
.	4F	.
.	4E	.
=30	=30	=30
0A	2.D	2r
.	.	2.A
.	4C	.
.	2D	.
.	.	4B
.	2E	4c
.	.	4B
=31	=31	=31
0D	1F	2.A
.	.	4G
.	4r	2A
.	4A	.
.	4G	2B
.	4F	.
=32	=32	=32
0E	2G	1c
.	2.A	.
.	.	4r
.	8G#	4e
.	8F#	.
.	2G#	4d
.	.	4c
=33	=33	=33
0F	1A	2d
.	.	2.e
.	1r	.
.	.	8d
.	.	8c
.	.	2d
=34	=34	=34
0E	4r	1e
.	4G	.
.	4.G	.
.	8A	.
.	4B	1r
.	4G	.
.	[2B	.
=35	=35	=35
0D	4B]	4r
.	8A	4d
.	8G	.
.	4A	4.d
.	4F	.
.	.	8e
.	2.A	4f
.	.	4d
.	.	[2f
.	4B	.
=36	=36	=36
0C	1c	4f]
.	.	8e
.	.	8d
.	.	4e
.	.	4c
.	2c	2.e
.	[2C	.
.	.	4f
=37	=37	=37
0E	4C]	1g
.	4C	.
.	4C	.
.	4D	.
.	2.E	2g
.	.	[2G
.	4D	.
=38	=38	=38
0G	2E	4G]
.	.	4G
.	2.E	4G
.	.	4A
.	.	2.B
.	4D	.
.	4E	.
.	4F	4A
=39	=39	=39
0E	4G	2B
.	4G	.
.	1A	2.B
.	.	4A
.	2G#	4B
.	.	4c
=40	=40	=40
0F	2.A	4d
.	.	4d
.	.	1e
.	4G	.
.	4F	.
.	4E	.
.	2F	2d
=41	=41	=41
0E	1G	2.e
.	.	4d
.	2G	4c
.	.	4B
.	2A	2c
=42	=42	=42
[0D	2B-	1d
.	1BB-	.
.	.	2d
.	2C	2e
=43	=43	=43
0D_	1D	2f
.	.	1F
.	2D	.
.	2E	2G
=44	=44	=44
0D_	4F#	1A
.	4F#	.
.	1G	.
.	.	[1A
.	4F#	.
.	4E	.
=45	=45	=45
0D]	0F#	0A]
==	==	==
*-	*-	*-
!!!CDT: flourished 1641
!!!CNT: Italia
!!!ODT: <1641//
!!!YEP: David Huron and Denis Collins
!!!YEN: Canada
!!!AIN: vox; ?
!!!AST: polyphony
!!!RDT: 1995 April 29
!!!YED: 1995 August 31
!!!AFR: cantus firmus canon
!!!AMT: simple quadruple
!!!EEV: 1.0
